X:1
T:Title
%%score { ( 1 3 ) | ( 2 4 ) }
L:1/8
M:4/4
K:C
V:1 treble nm="Grand Piano"
V:3 treble 
V:2 bass 
V:4 bass 
V:1
 z4 z2[Q:1/4=100] [CE]>[EG] | [Ec]2 [Ec]2 [EG]2 [CE]>[EG] | [FB]2 [FA]2 G3 E | %3
 G3 [B,D] [CE]2 [DF]2 |[M:3/4] [CE]6 |[M:1/4] [CE]>[EG] |[M:4/4] A2 A2 A2 B>c | %7
 [Ec]2 [CE]2 [CG]3 [EA] | B3 B c2 ^F2 |[M:3/4] G6 |[M:1/4] A3/2 z/ |[M:4/4] z4 z2 B2 | %12
 [FB]2 [FA]2 [EG]3 [EG] | [FA]2 [FA]2 [^FA]2 [GB]>[Ac] | B2 c2 d3 d | [Ee]2 [Ed]2 [Ec]2 [G,CE]2 | %16
 [FB]2 [FA]2 [EG]3 [EG] | A3 A B2 B2 |[M:3/4] [Ec]6 |] %19
V:2
 z4 z2 [C,G,]>[C,G,] | [C,G,]2 [C,G,]2 [C,C]2 [C,G,]>[C,G,] | [D,G,]2 [D,B,]2 [E,C]3 [C,G,C] | %3
 [D,G,B,]3 [G,,G,] [G,,G,]2 [G,,G,]2 |[M:3/4] [C,G,]6 |[M:1/4] [C,G,]>[C,G,] | %6
[M:4/4] [F,CF]2 [F,CF]2 [F,CF]2 [F,B,F]>[F,A,F] | [C,G,]2 [C,G,]2 [C,E,]3 [C,G,] | %8
 [D,G,D]3 [D,G,D] [D,^F,D]2 [D,CD]2 |[M:3/4] [G,B,D]6 |[M:1/4] [D,G,]2 | %11
[M:4/4] [C,G,]2 [G,,G,]2 [C,G,]2 [G,,G,]2 | [D,G,]2 [G,,G,]2 [E,G,]3 [C,C] | %13
 [F,C]2 [F,C]2 [D,D]2 [D,D]>[D,D] | [G,DG]2 [G,EG]2 [G,B,G]3 [G,F] | %15
 [C,G,]2 [G,,G,]2 [C,G,]2 z z/ G/ | [E,G,]2 [G,,G,]2 [E,G,]3 [C,C] | %17
 [F,CF]3 [F,DF] [G,DF]2 [G,DF]2 |[M:3/4][K:bass] [C,G,C]6 |] %19
V:3
 x8 | x8 | x8 | x8 |[M:3/4] x6 |[M:1/4] x2 |[M:4/4] x8 | x8 | x8 |[M:3/4] x6 |[M:1/4] F->[FB] | %11
[M:4/4] [Ec]2 [Ec]2 [Ec]2 E->[EA] | x8 | x8 | x8 | x8 | x8 | x8 |[M:3/4] x6 |] %19
V:4
 x8 | x8 | x8 | x8 |[M:3/4] x6 |[M:1/4] x2 |[M:4/4] x8 | x8 | x8 |[M:3/4] x6 |[M:1/4] x2 | %11
[M:4/4] x8 | x8 | x8 | x8 | z4 z2 G,,2 | x8 | x8 |[M:3/4][K:bass] x6 |] %19

